build/images/rating-5.svg

<svg width="168" height="27" viewBox="0 0 168 27" fill="none" xmlns="http://www.w3.org/2000/svg">
<path d="M12.7933 3.85958C13.0931 2.9393 14.3951 2.9393 14.6949 3.85958L16.446 9.23398C16.5801 9.64561 16.9639 9.92418 17.3968 9.92418H23.0576C24.0269 9.92418 24.4293 11.1652 23.6443 11.734L19.0694 15.0486C18.7179 15.3033 18.5709 15.7555 18.7053 16.1682L20.4539 21.5349C20.7539 22.4557 19.7006 23.2227 18.9164 22.6544L14.3308 19.3321C13.9808 19.0784 13.5074 19.0784 13.1574 19.3321L8.57183 22.6544C7.78757 23.2227 6.73428 22.4557 7.0343 21.5348L8.78288 16.1682C8.91733 15.7555 8.77025 15.3033 8.41879 15.0486L3.84392 11.734C3.05891 11.1652 3.46124 9.92418 4.43064 9.92418H10.0914C10.5243 9.92418 10.9081 9.6456 11.0422 9.23398L12.7933 3.85958Z" fill="#070707"/>
<path d="M47.8902 3.85958C48.1901 2.9393 49.492 2.9393 49.7918 3.85958L51.5429 9.23398C51.677 9.64561 52.0608 9.92418 52.4937 9.92418H58.1545C59.1239 9.92418 59.5262 11.1652 58.7412 11.734L54.1663 15.0486C53.8149 15.3033 53.6678 15.7555 53.8022 16.1682L55.5508 21.5349C55.8508 22.4557 54.7975 23.2227 54.0133 22.6544L49.4277 19.3321C49.0777 19.0784 48.6043 19.0784 48.2543 19.3321L43.6688 22.6544C42.8845 23.2227 41.8312 22.4557 42.1312 21.5348L43.8798 16.1682C44.0143 15.7555 43.8672 15.3033 43.5157 15.0486L38.9408 11.734C38.1558 11.1652 38.5582 9.92418 39.5276 9.92418H45.1883C45.6212 9.92418 46.005 9.6456 46.1391 9.23398L47.8902 3.85958Z" fill="#070707"/>
<path d="M82.9874 3.85958C83.2872 2.9393 84.5891 2.9393 84.889 3.85958L86.6401 9.23398C86.7742 9.64561 87.158 9.92418 87.5909 9.92418H93.2516C94.221 9.92418 94.6234 11.1652 93.8384 11.734L89.2635 15.0486C88.912 15.3033 88.7649 15.7555 88.8994 16.1682L90.648 21.5349C90.948 22.4557 89.8947 23.2227 89.1105 22.6544L84.5249 19.3321C84.1749 19.0784 83.7015 19.0784 83.3515 19.3321L78.7659 22.6544C77.9817 23.2227 76.9284 22.4557 77.2284 21.5348L78.977 16.1682C79.1114 15.7555 78.9643 15.3033 78.6129 15.0486L74.038 11.734C73.253 11.1652 73.6553 9.92418 74.6247 9.92418H80.2855C80.7184 9.92418 81.1022 9.6456 81.2363 9.23398L82.9874 3.85958Z" fill="#070707"/>
<path d="M118.085 3.85958C118.384 2.9393 119.686 2.9393 119.986 3.85958L121.737 9.23398C121.871 9.64561 122.255 9.92418 122.688 9.92418H128.349C129.318 9.92418 129.721 11.1652 128.936 11.734L124.361 15.0486C124.009 15.3033 123.862 15.7555 123.997 16.1682L125.745 21.5349C126.045 22.4557 124.992 23.2227 124.208 22.6544L119.622 19.3321C119.272 19.0784 118.799 19.0784 118.449 19.3321L113.863 22.6544C113.079 23.2227 112.026 22.4557 112.326 21.5348L114.074 16.1682C114.209 15.7555 114.062 15.3033 113.71 15.0486L109.135 11.734C108.35 11.1652 108.753 9.92418 109.722 9.92418H115.383C115.816 9.92418 116.199 9.6456 116.333 9.23398L118.085 3.85958Z" fill="#070707"/>
<path d="M153.085 3.91817C153.385 2.9979 154.687 2.9979 154.987 3.91817L156.738 9.29257C156.872 9.7042 157.256 9.98278 157.689 9.98278H163.35C164.319 9.98278 164.721 11.2238 163.936 11.7926L159.361 15.1072C159.01 15.3619 158.863 15.8141 158.997 16.2268L160.746 21.5934C161.046 22.5143 159.993 23.2812 159.208 22.713L154.623 19.3907C154.273 19.137 153.799 19.137 153.449 19.3907L148.864 22.713C148.08 23.2812 147.026 22.5143 147.326 21.5934L149.075 16.2268C149.209 15.8141 149.062 15.3619 148.711 15.1072L144.136 11.7926C143.351 11.2238 143.753 9.98278 144.723 9.98278H150.383C150.816 9.98278 151.2 9.7042 151.334 9.29257L153.085 3.91817Z" fill="#070707"/>
</svg>

<svg width="168" height="27" fill="none" xmlns="http://www.w3.org/2000/svg"><path d="M12.793 3.86c.3-.92 1.602-.92 1.902 0l1.751 5.374a1 1 0 00.95.69h5.662c.969 0 1.371 1.241.586 1.81l-4.575 3.315a1 1 0 00-.364 1.12l1.749 5.366c.3.92-.753 1.688-1.538 1.12l-4.585-3.323a1 1 0 00-1.174 0l-4.585 3.322c-.784.569-1.838-.198-1.538-1.12l1.749-5.366a1 1 0 00-.364-1.12l-4.575-3.314c-.785-.569-.383-1.81.587-1.81h5.66a1 1 0 00.951-.69l1.751-5.374zm35.097 0c.3-.92 1.602-.92 1.902 0l1.75 5.374a1 1 0 00.952.69h5.66c.97 0 1.372 1.241.587 1.81l-4.575 3.315a1 1 0 00-.364 1.12l1.749 5.366c.3.92-.754 1.688-1.538 1.12l-4.585-3.323a1 1 0 00-1.174 0l-4.585 3.322c-.784.569-1.838-.198-1.538-1.12l1.749-5.366a1 1 0 00-.364-1.12l-4.575-3.314c-.785-.569-.383-1.81.587-1.81h5.66a1 1 0 00.951-.69L47.89 3.86zm35.097 0c.3-.92 1.602-.92 1.902 0l1.751 5.374a1 1 0 00.95.69h5.662c.969 0 1.371 1.241.586 1.81l-4.575 3.315a1 1 0 00-.364 1.12l1.749 5.366c.3.92-.753 1.688-1.537 1.12l-4.586-3.323a1 1 0 00-1.174 0l-4.585 3.322c-.784.569-1.838-.198-1.538-1.12l1.749-5.366a1 1 0 00-.364-1.12l-4.575-3.314c-.785-.569-.383-1.81.587-1.81h5.66a1 1 0 00.951-.69l1.751-5.374zm35.098 0c.299-.92 1.601-.92 1.901 0l1.751 5.374a1 1 0 00.951.69h5.661c.969 0 1.372 1.241.587 1.81l-4.575 3.315a.998.998 0 00-.364 1.12l1.748 5.366c.3.92-.753 1.688-1.537 1.12l-4.586-3.323a.999.999 0 00-1.173 0l-4.586 3.322c-.784.569-1.837-.198-1.537-1.12l1.748-5.366a.998.998 0 00-.364-1.12l-4.575-3.314c-.785-.569-.382-1.81.587-1.81h5.661a.999.999 0 00.95-.69l1.752-5.374zm35 .058c.3-.92 1.602-.92 1.902 0l1.751 5.375a1 1 0 00.951.69h5.661c.969 0 1.371 1.24.586 1.81l-4.575 3.314a1.001 1.001 0 00-.364 1.12l1.749 5.366c.3.921-.753 1.688-1.538 1.12l-4.585-3.322a1 1 0 00-1.174 0l-4.585 3.322c-.784.568-1.838-.199-1.538-1.12l1.749-5.366a1.001 1.001 0 00-.364-1.12l-4.575-3.314c-.785-.57-.383-1.81.587-1.81h5.66a1 1 0 00.951-.69l1.751-5.375z" fill="#070707"/></svg>
